austria/municipalities/70718.svg

<?xml version="1.0" encoding="UTF-8"?>
<!DOCTYPE svg PUBLIC "-//W3C//DTD SVG 1.1//EN" "http://www.w3.org/Graphics/SVG/1.1/DTD/svg11.dtd">
<svg xmlns="http://www.w3.org/2000/svg" version="1.1" width="166px" height="192px" style="shape-rendering:geometricPrecision; text-rendering:geometricPrecision; image-rendering:optimizeQuality; fill-rule:evenodd; clip-rule:evenodd" xmlns:xlink="http://www.w3.org/1999/xlink">
<g><path style="opacity:1" fill="#120907" d="M -0.5,-0.5 C 54.8333,-0.5 110.167,-0.5 165.5,-0.5C 165.5,39.8333 165.5,80.1667 165.5,120.5C 156.737,159.596 132.737,183.263 93.5,191.5C 86.8333,191.5 80.1667,191.5 73.5,191.5C 32.3074,183.974 7.64071,159.641 -0.5,118.5C -0.5,78.8333 -0.5,39.1667 -0.5,-0.5 Z"/></g>
<g><path style="opacity:1" fill="#d63023" d="M 3.5,3.5 C 56.1667,3.5 108.833,3.5 161.5,3.5C 161.667,41.8348 161.5,80.1681 161,118.5C 155.517,150.975 137.35,172.809 106.5,184C 63.1267,194.059 30.96,179.559 10,140.5C 7.05805,132.732 5.05805,124.732 4,116.5C 3.50001,78.8348 3.33335,41.1681 3.5,3.5 Z"/></g>
<g><path style="opacity:1" fill="#050201" d="M 67.5,12.5 C 75.9947,11.3257 83.828,12.9924 91,17.5C 91.6667,16.8333 92.3333,16.1667 93,15.5C 94,16.8333 95,18.1667 96,19.5C 96.9653,17.7397 98.132,17.4063 99.5,18.5C 100.833,21.1667 100.833,23.8333 99.5,26.5C 103.907,35.3771 103.074,43.0438 97,49.5C 96.5448,52.8536 96.0448,56.1869 95.5,59.5C 94.5,59.5 93.5,59.5 92.5,59.5C 92.7039,63.2196 91.7039,66.553 89.5,69.5C 88.8076,68.9747 88.3076,68.3081 88,67.5C 87.6667,67.8333 87.3333,68.1667 87,68.5C 86.0068,71.308 85.1734,74.1413 84.5,77C 67.1667,86.3333 49.8333,95.6667 32.5,105C 31.3333,106.167 30.1667,107.333 29,108.5C 29.5803,113.683 27.4137,117.016 22.5,118.5C 21.7022,116.922 21.2022,115.256 21,113.5C 19.103,115.016 16.9363,115.683 14.5,115.5C 14.4443,112.439 15.7776,110.272 18.5,109C 10.6136,105.268 11.2803,102.768 20.5,101.5C 17.732,99.3754 17.8987,97.7087 21,96.5C 23.148,97.5767 25.148,98.91 27,100.5C 32.4115,97.0946 37.2449,92.9279 41.5,88C 40.451,87.5078 39.451,87.6744 38.5,88.5C 37.4716,86.5599 37.4716,84.5599 38.5,82.5C 38.1667,81.8333 37.8333,81.1667 37.5,80.5C 36.3914,81.5896 35.3914,81.5896 34.5,80.5C 35.3052,78.0846 36.3052,75.7513 37.5,73.5C 36.5853,72.6721 35.9186,71.6721 35.5,70.5C 36.9728,67.59 37.8062,64.59 38,61.5C 34.714,57.7588 31.5473,53.9255 28.5,50C 25.567,49.7042 22.7336,50.2042 20,51.5C 19.1667,51.1667 18.3333,50.8333 17.5,50.5C 18.5,49.1667 19.5,47.8333 20.5,46.5C 18.2494,46.7132 16.2494,45.7132 14.5,43.5C 15.3636,41.8035 16.6969,40.6368 18.5,40C 17.8333,38.3333 17.1667,36.6667 16.5,35C 19.2305,34.2716 21.8971,34.4383 24.5,35.5C 25.3857,34.675 25.719,33.675 25.5,32.5C 27.9032,32.393 29.7365,33.393 31,35.5C 31.3333,38.5 31.6667,41.5 32,44.5C 36.4986,48.8274 41.6653,51.6608 47.5,53C 56.4936,46.5013 65.8269,40.5013 75.5,35C 70.784,34.3915 66.6173,32.5581 63,29.5C 62.2025,27.7412 62.3691,26.0745 63.5,24.5C 65.28,26.4438 67.4467,27.7771 70,28.5C 71.2798,28.3865 72.1131,27.7199 72.5,26.5C 70.8509,23.2612 68.1842,21.7612 64.5,22C 63.6433,21.3109 62.9767,20.4776 62.5,19.5C 63.8037,16.8699 65.4704,14.5366 67.5,12.5 Z"/></g>
<g><path style="opacity:1" fill="#060201" d="M 124.5,152.5 C 125.043,152.44 125.376,152.107 125.5,151.5C 122.572,150.516 119.572,150.183 116.5,150.5C 109.545,149.72 104.711,146.053 102,139.5C 101.112,133.844 100.279,128.177 99.5,122.5C 90.6067,126.612 86.6067,133.612 87.5,143.5C 79.5,145.5 71.5,147.5 63.5,149.5C 63.4887,152.89 62.1554,155.556 59.5,157.5C 58.8333,156.833 58.1667,156.167 57.5,155.5C 54.7766,157.398 51.9432,159.065 49,160.5C 48.51,159.207 48.3433,157.873 48.5,156.5C 46.6693,155.948 45.0026,155.948 43.5,156.5C 43.1667,156 42.8333,155.5 42.5,155C 43.6254,153.037 44.9587,151.204 46.5,149.5C 43.972,148.483 43.972,147.316 46.5,146C 56.4806,146.502 65.4806,143.836 73.5,138C 65.8338,127.145 67.1671,117.645 77.5,109.5C 76.5,108.667 75.5,107.833 74.5,107C 75.624,106.751 76.624,106.251 77.5,105.5C 69.3409,102.892 61.3409,99.8919 53.5,96.5C 63.9107,90.0995 74.5774,84.0995 85.5,78.5C 88.1963,79.8509 90.5296,81.6843 92.5,84C 101.516,88.7818 110.85,92.7818 120.5,96C 123.312,97.9773 125.978,100.144 128.5,102.5C 137.888,98.4933 139.721,92.1599 134,83.5C 126.209,78.569 119.709,79.9023 114.5,87.5C 113.141,84.0105 113.474,80.6772 115.5,77.5C 114.11,75.8306 113.777,74.1639 114.5,72.5C 119.611,74.9668 124.944,76.1335 130.5,76C 122.161,65.9794 117.994,54.4794 118,41.5C 119.768,30.2457 125.601,21.9123 135.5,16.5C 135.833,16.8333 136.167,17.1667 136.5,17.5C 135.833,18.5 135.167,19.5 134.5,20.5C 138.817,21.0141 142.817,22.3474 146.5,24.5C 141.066,26.0336 135.733,27.867 130.5,30C 127.667,31.5 125.5,33.6667 124,36.5C 122.43,42.0527 122.097,47.7194 123,53.5C 125.135,48.2225 128.468,43.8892 133,40.5C 132.563,42.7567 132.063,45.09 131.5,47.5C 134.893,47.0617 137.893,47.8951 140.5,50C 133.249,49.9407 128.582,53.274 126.5,60C 129.921,67.6748 133.754,75.1748 138,82.5C 141.277,89.194 141.277,95.8607 138,102.5C 135.457,104.354 132.624,105.521 129.5,106C 130.561,107.849 131.227,109.849 131.5,112C 128.879,119.527 126.879,127.193 125.5,135C 125.464,137.63 125.964,140.13 127,142.5C 131.139,144.868 135.305,147.035 139.5,149C 135.348,154.489 131.181,159.989 127,165.5C 126.058,168.443 124.892,171.276 123.5,174C 122.258,174.311 121.258,173.811 120.5,172.5C 119.167,175.833 116.833,178.167 113.5,179.5C 112.548,177.955 112.215,176.288 112.5,174.5C 105.226,175.672 104.56,173.506 110.5,168C 109.5,167.667 108.5,167.333 107.5,167C 108.927,165.203 110.76,164.036 113,163.5C 115.05,164.791 117.217,165.291 119.5,165C 121.586,160.996 123.252,156.829 124.5,152.5 Z"/></g>
<g><path style="opacity:1" fill="#fdfdfd" d="M -0.5,118.5 C 7.64071,159.641 32.3074,183.974 73.5,191.5C 48.8333,191.5 24.1667,191.5 -0.5,191.5C -0.5,167.167 -0.5,142.833 -0.5,118.5 Z"/></g>
<g><path style="opacity:1" fill="#fdfdfd" d="M 165.5,120.5 C 165.5,144.167 165.5,167.833 165.5,191.5C 141.5,191.5 117.5,191.5 93.5,191.5C 132.737,183.263 156.737,159.596 165.5,120.5 Z"/></g>
<g><path style="opacity:1" fill="#692318" d="M 116.5,150.5 C 119.572,150.183 122.572,150.516 125.5,151.5C 125.376,152.107 125.043,152.44 124.5,152.5C 121.833,151.833 119.167,151.167 116.5,150.5 Z"/></g>
</svg>

<svg xmlns="http://www.w3.org/2000/svg" width="166" height="192" style="shape-rendering:geometricPrecision;text-rendering:geometricPrecision;image-rendering:optimizeQuality;fill-rule:evenodd;clip-rule:evenodd"><path style="opacity:1" fill="#120907" d="M-.5-.5h166v121c-8.763 39.096-32.763 62.763-72 71h-20c-41.193-7.526-65.86-31.859-74-73V-.5z"/><path style="opacity:1" fill="#d63023" d="M3.5 3.5h158c.167 38.335 0 76.668-.5 115-5.483 32.475-23.65 54.309-54.5 65.5-43.373 10.059-75.54-4.441-96.5-43.5a105.508 105.508 0 0 1-6-24c-.5-37.665-.667-75.332-.5-113z"/><path style="opacity:1" fill="#050201" d="M67.5 12.5c8.495-1.174 16.328.492 23.5 5l2-2 3 4c.965-1.76 2.132-2.094 3.5-1 1.333 2.667 1.333 5.333 0 8 4.407 8.877 3.574 16.544-2.5 23a360.242 360.242 0 0 1-1.5 10h-3c.204 3.72-.796 7.053-3 10a4.452 4.452 0 0 1-1.5-2l-1 1a81.547 81.547 0 0 0-2.5 8.5l-52 28-3.5 3.5c.58 5.183-1.586 8.516-6.5 10a14.729 14.729 0 0 1-1.5-5c-1.897 1.516-4.064 2.183-6.5 2-.056-3.061 1.278-5.228 4-6.5-7.886-3.732-7.22-6.232 2-7.5-2.768-2.125-2.601-3.791.5-5a29.425 29.425 0 0 1 6 4c5.411-3.405 10.245-7.572 14.5-12.5-1.049-.492-2.049-.326-3 .5-1.028-1.94-1.028-3.94 0-6l-1-2c-1.109 1.09-2.109 1.09-3 0a45.813 45.813 0 0 1 3-7 7.291 7.291 0 0 1-2-3c1.473-2.91 2.306-5.91 2.5-9A246.126 246.126 0 0 1 28.5 50c-2.933-.296-5.766.204-8.5 1.5l-2.5-1 3-4c-2.25.213-4.25-.787-6-3 .864-1.697 2.197-2.863 4-3.5l-2-5c2.73-.728 5.397-.562 8 .5.886-.825 1.219-1.825 1-3 2.403-.107 4.236.893 5.5 3l1 9c4.499 4.327 9.665 7.16 15.5 8.5a306.362 306.362 0 0 1 28-18c-4.716-.608-8.883-2.442-12.5-5.5-.797-1.759-.63-3.425.5-5 1.78 1.944 3.947 3.277 6.5 4 1.28-.113 2.113-.78 2.5-2-1.65-3.239-4.316-4.739-8-4.5a7.253 7.253 0 0 1-2-2.5 26.538 26.538 0 0 1 5-7z"/><path style="opacity:1" fill="#060201" d="M124.5 152.5c.543-.06.876-.393 1-1a21.127 21.127 0 0 0-9-1c-6.955-.78-11.789-4.447-14.5-11a887.493 887.493 0 0 1-2.5-17c-8.893 4.112-12.893 11.112-12 21l-24 6c-.011 3.39-1.345 6.056-4 8l-2-2a63.592 63.592 0 0 1-8.5 5 8.435 8.435 0 0 1-.5-4c-1.83-.552-3.497-.552-5 0l-1-1.5a31.638 31.638 0 0 1 4-5.5c-2.528-1.017-2.528-2.184 0-3.5 9.98.502 18.98-2.164 27-8-7.666-10.855-6.333-20.355 4-28.5l-3-2.5a6.802 6.802 0 0 0 3-1.5 259.11 259.11 0 0 1-24-9 473.61 473.61 0 0 1 32-18 22.11 22.11 0 0 1 7 5.5 183.688 183.688 0 0 0 28 12 74.371 74.371 0 0 1 8 6.5c9.388-4.007 11.221-10.34 5.5-19-7.791-4.931-14.291-3.598-19.5 4-1.359-3.49-1.026-6.823 1-10-1.39-1.67-1.723-3.336-1-5 5.111 2.467 10.444 3.633 16 3.5-8.339-10.02-12.506-21.52-12.5-34.5 1.768-11.254 7.601-19.588 17.5-25l1 1-2 3c4.317.514 8.317 1.847 12 4a151.05 151.05 0 0 0-16 5.5c-2.833 1.5-5 3.667-6.5 6.5-1.57 5.553-1.903 11.22-1 17 2.135-5.278 5.468-9.61 10-13-.437 2.257-.937 4.59-1.5 7 3.393-.438 6.393.395 9 2.5-7.251-.06-11.918 3.274-14 10A238.311 238.311 0 0 0 138 82.5c3.277 6.694 3.277 13.36 0 20a19.15 19.15 0 0 1-8.5 3.5 15.973 15.973 0 0 1 2 6 148.246 148.246 0 0 0-6 23c-.036 2.63.464 5.13 1.5 7.5a172.649 172.649 0 0 0 12.5 6.5 14529.14 14529.14 0 0 1-12.5 16.5 56.484 56.484 0 0 1-3.5 8.5c-1.242.311-2.242-.189-3-1.5-1.333 3.333-3.667 5.667-7 7-.952-1.545-1.285-3.212-1-5-7.274 1.172-7.94-.994-2-6.5l-3-1c1.427-1.797 3.26-2.964 5.5-3.5 2.05 1.291 4.217 1.791 6.5 1.5a67.39 67.39 0 0 0 5-12.5z"/><path style="opacity:1" fill="#fdfdfd" d="M-.5 118.5c8.14 41.141 32.807 65.474 74 73h-74v-73zM165.5 120.5v71h-72c39.237-8.237 63.237-31.904 72-71z"/><path style="opacity:1" fill="#692318" d="M116.5 150.5a21.127 21.127 0 0 1 9 1c-.124.607-.457.94-1 1l-8-2z"/></svg>
